X:3477
T:Lady Elizabeth Lindsay
O:england
C:Nathaniel Gow
S:Kerr's Merry Melodies, Bk.2
M:4/4
L:1/8
K:Bb
g|f<Bd>c B<GG>B|F>BD>B F<DD>g|f<Bd>c B<GG>B|F>BD>d c3:|]
g|f<dd>e f<dd>g|f<dd>e f>gd>b|f<dd>e f>gd>b|f<dd>B c3g|
f<dd>e f<dd>g|f<dd>e f>gd>b|g>bf>g d>fc>f|G>BF>D C3|]


